X:1
T:Harken, Ye Children
T:Harken, Ye Children
T:Grace Wilbur Conant, 1913
T:Anna F. Burnham Bryant, 1913
T:Public Domain Courtesy of the Cyber Hymnal™
C:Grace Wilbur Conant, 1913
Z:Public Domain
Z:Courtesy of the Cyber Hymnal™
%%score ( 1 2 ) ( 3 4 )
L:1/8
Q:1/4=86
M:2/4
K:F
V:1 treble 
V:2 treble 
V:3 bass 
V:4 bass 
V:1
 [CF]2 C[FA] | [CF]2 C[FA] | [Fc][FA]/F/ [EG][EB]/[EG]/ | [CF]3 z | [CF]2 C[FA] | [CF]2 C[FA] | %6
w: 1.~Hark- en, ye|child- ren, While|shep- herds of Beth- le- hem|sing|How in a|man- ger We|
w: 2.~How did we|know Him? The|sign was the sign of the|child|Laid in a|man- ger, A|
w: 3.~Why did we|hast- en? O|who may keep wait- ing the|King?|An- gels on|bright wings Came|
w: 4.~What did we|find there? A|Sav- ior for rich and for|poor.|Wise men and|kings come To|
 [Fc] (A/F/) [EG] ([EB]/[EG]/) | [CF]3 z | [Ac]2 [FA][Af] | [Ac]2 [FA][Af] | %10
w: found Him, * Beth- lehem’s *|king!|Un- to us|shep- herds The|
w: fair babe, * un- de- *|filed.|Lit- tle Child|Je- sus Is|
w: down His * sum- mons~to *|bring!|Lit- tle Child|Je- sus, Your|
w: kneel— O * wide is~the *|door!|Come, lit- tle|child- ren, We|
 [Ac][Fc] ([Bd]/[Ac]/) ([GB]/[FA]/) | [EG]4 | [CF]2 C[FA] | [CF]2 C[FA] | [Ec] (A/F/) [FG] (B/G/) | %15
w: an- gels stooped * to *|tell|Beth- le- hem’s|sto- ry And|all that * there be- *|
w: Lord of child- * ren *|dear;|Trust Him, sweet|child- ren, Who|was a * ba- by *|
w: com- ing wait- * eth, *|too;|Beth- le- hem’s|king keeps An|o- pen * door for *|
w: hum- ble shep- * herd *|men|Call you to|fol- low And|find the * Christ a- *|
 [CF]4 |] %16
w: fell.|
w: here.|
w: you.|
w: gain.|
V:2
 x2 C x | x2 C x | x3/2 F/ x2 | x4 | x2 C x | x2 C x | x F x2 | x4 | x4 | x4 | x4 | x4 | x2 C x | %13
 x2 C x | x F x/ E x/ | x4 |] %16
V:3
 [F,A,]2 [F,A,][F,C] | [F,A,]2 [F,A,][F,C] | [F,A,][F,C]/[F,A,]/ [C,C][C,G,]/[C,B,]/ | [F,A,]3 z | %4
 [F,A,]2 [F,A,][C,C] | [F,A,]2 [F,A,][C,C] | [F,A,][F,C] [C,C] ([C,G,]/[C,B,]/) | [F,A,]3 z | %8
 [F,C]2 [F,F][F,C] | [F,C]2 [F,F][F,C] | [F,C][A,C] B,[B,,D] | (E2 CB,) | [F,A,]2 [F,A,][C,C] | %13
 [F,A,]2 [F,A,][D,A,] | [A,,A,][D,A,] [B,,D] (C/B,/) | [F,A,]4 |] %16
V:4
 x4 | x4 | x4 | x4 | x4 | x4 | x4 | x4 | x4 | x4 | x2 B, x | C,4 | x4 | x4 | x3 C, | x4 |] %16

